X:252
T: ACH MUTTER S HAT FREIER HIER
N: E0837
O: Europa, Mitteleuropa, Deutschland, Schlesien, Liegnitz
R: Hochzeits -, Ehestands - Lied
M: 3/8
L: 1/8
K: C
G, | CCE | CCC | G,G,G, | C2
G, | CCE | CCC | G,G,G, | C2
G, | DDD | CA,G, | EEE | D2
G | DDD | EEE | A,A,B, | C2

@@@ Tune index: 4565
